svgs/sharp-regular/text.svg

<svg xmlns="http://www.w3.org/2000/svg" viewBox="0 0 448 512"><!--! Font Awesome Pro 6.6.0 by @fontawesome - https://fontawesome.com License - https://fontawesome.com/license (Commercial License) Copyright 2024 Fonticons, Inc. --><path d="M0 32l24 0 400 0 24 0 0 24 0 72 0 24-48 0 0-24 0-48L248 80l0 352 48 0 24 0 0 48-24 0-144 0-24 0 0-48 24 0 48 0 0-352L48 80l0 48 0 24L0 152l0-24L0 56 0 32z"/></svg>

<svg xmlns="http://www.w3.org/2000/svg" viewBox="0 0 448 512"><!--! Font Awesome Pro 6.4.2 by @fontawesome - https://fontawesome.com License - https://fontawesome.com/license (Commercial License) Copyright 2023 Fonticons, Inc. --><path d="M0 32H24 424h24V56v72 24H400V128 80H248l0 352h48 24v48H296 152 128V432h24 48l0-352H48v48 24H0V128 56 32z"/></svg>
